images/4342730.svg

<?xml version="1.0" encoding="UTF-8"?>
<svg xmlns="http://www.w3.org/2000/svg" xmlns:xlink="http://www.w3.org/1999/xlink" width="300pt" height="300pt" viewBox="0 0 300 300" version="1.1">
<defs>
<g>
<symbol overflow="visible" id="glyph0-0">
<path style="stroke:none;" d="M 0.453125 1.59375 L 0.453125 -6.34375 L 4.953125 -6.34375 L 4.953125 1.59375 Z M 0.953125 1.09375 L 4.453125 1.09375 L 4.453125 -5.84375 L 0.953125 -5.84375 Z M 0.953125 1.09375 "/>
</symbol>
<symbol overflow="visible" id="glyph0-1">
<path style="stroke:none;" d="M 3.546875 -5.953125 C 2.898438 -5.953125 2.382812 -5.710938 2 -5.234375 C 1.625 -4.753906 1.4375 -4.101562 1.4375 -3.28125 C 1.4375 -2.445312 1.625 -1.789062 2 -1.3125 C 2.382812 -0.832031 2.898438 -0.59375 3.546875 -0.59375 C 4.191406 -0.59375 4.703125 -0.832031 5.078125 -1.3125 C 5.453125 -1.789062 5.640625 -2.445312 5.640625 -3.28125 C 5.640625 -4.101562 5.453125 -4.753906 5.078125 -5.234375 C 4.703125 -5.710938 4.191406 -5.953125 3.546875 -5.953125 Z M 3.546875 -6.6875 C 4.460938 -6.6875 5.195312 -6.375 5.75 -5.75 C 6.300781 -5.132812 6.578125 -4.3125 6.578125 -3.28125 C 6.578125 -2.238281 6.300781 -1.410156 5.75 -0.796875 C 5.195312 -0.179688 4.460938 0.125 3.546875 0.125 C 2.617188 0.125 1.878906 -0.179688 1.328125 -0.796875 C 0.773438 -1.410156 0.5 -2.238281 0.5 -3.28125 C 0.5 -4.3125 0.773438 -5.132812 1.328125 -5.75 C 1.878906 -6.375 2.617188 -6.6875 3.546875 -6.6875 Z M 3.546875 -6.6875 "/>
</symbol>
<symbol overflow="visible" id="glyph0-2">
<path style="stroke:none;" d="M 0.890625 -6.5625 L 1.765625 -6.5625 L 1.765625 -3.875 L 5 -3.875 L 5 -6.5625 L 5.890625 -6.5625 L 5.890625 0 L 5 0 L 5 -3.125 L 1.765625 -3.125 L 1.765625 0 L 0.890625 0 Z M 0.890625 -6.5625 "/>
</symbol>
</g>
</defs>
<g id="surface50273">
<rect x="0" y="0" width="300" height="300" style="fill:rgb(100%,100%,100%);fill-opacity:1;stroke:none;"/>
<path style="fill:none;stroke-width:1.2;stroke-linecap:butt;stroke-linejoin:miter;stroke:rgb(0%,0%,0%);stroke-opacity:1;stroke-miterlimit:10;" d="M 259.773438 124.304688 L 249.304688 123.25 "/>
<path style="fill:none;stroke-width:1.2;stroke-linecap:butt;stroke-linejoin:miter;stroke:rgb(100%,0%,0%);stroke-opacity:1;stroke-miterlimit:10;" d="M 249.304688 123.25 L 238.839844 122.191406 "/>
<path style="fill:none;stroke-width:1.2;stroke-linecap:butt;stroke-linejoin:miter;stroke:rgb(100%,0%,0%);stroke-opacity:1;stroke-miterlimit:10;" d="M 238.839844 122.191406 L 232.691406 130.730469 "/>
<path style="fill:none;stroke-width:1.2;stroke-linecap:butt;stroke-linejoin:miter;stroke:rgb(0%,0%,0%);stroke-opacity:1;stroke-miterlimit:10;" d="M 232.691406 130.730469 L 226.542969 139.265625 "/>
<path style=" stroke:none;fill-rule:nonzero;fill:rgb(100%,100%,100%);fill-opacity:1;" d="M 234.839844 116.691406 L 242.839844 116.691406 L 242.839844 127.691406 L 234.839844 127.691406 Z M 234.839844 116.691406 "/>
<g style="fill:rgb(100%,0%,0%);fill-opacity:1;">
  <use xlink:href="#glyph0-1" x="234.839844" y="125.354492"/>
</g>
<path style="fill:none;stroke-width:1.2;stroke-linecap:butt;stroke-linejoin:miter;stroke:rgb(0%,0%,0%);stroke-opacity:1;stroke-miterlimit:10;" d="M 226.542969 139.265625 L 235.179688 158.449219 "/>
<path style="fill:none;stroke-width:1.2;stroke-linecap:butt;stroke-linejoin:miter;stroke:rgb(0%,0%,0%);stroke-opacity:1;stroke-miterlimit:10;" d="M 222.890625 143.214844 L 229.800781 158.566406 "/>
<path style="fill:none;stroke-width:1.2;stroke-linecap:butt;stroke-linejoin:miter;stroke:rgb(0%,0%,0%);stroke-opacity:1;stroke-miterlimit:10;" d="M 205.609375 137.152344 L 226.542969 139.265625 "/>
<path style="fill:none;stroke-width:1.2;stroke-linecap:butt;stroke-linejoin:miter;stroke:rgb(0%,0%,0%);stroke-opacity:1;stroke-miterlimit:10;" d="M 235.179688 158.449219 L 222.882812 175.523438 "/>
<path style="fill:none;stroke-width:1.2;stroke-linecap:butt;stroke-linejoin:miter;stroke:rgb(0%,0%,0%);stroke-opacity:1;stroke-miterlimit:10;" d="M 235.179688 158.449219 L 245.644531 159.507812 "/>
<path style="fill:none;stroke-width:1.2;stroke-linecap:butt;stroke-linejoin:miter;stroke:rgb(100%,0%,0%);stroke-opacity:1;stroke-miterlimit:10;" d="M 245.644531 159.507812 L 256.113281 160.5625 "/>
<path style="fill:none;stroke-width:1.2;stroke-linecap:butt;stroke-linejoin:miter;stroke:rgb(0%,0%,0%);stroke-opacity:1;stroke-miterlimit:10;" d="M 222.882812 175.523438 L 201.949219 173.410156 "/>
<path style="fill:none;stroke-width:1.2;stroke-linecap:butt;stroke-linejoin:miter;stroke:rgb(0%,0%,0%);stroke-opacity:1;stroke-miterlimit:10;" d="M 221.285156 170.386719 L 204.539062 168.695312 "/>
<path style="fill:none;stroke-width:1.2;stroke-linecap:butt;stroke-linejoin:miter;stroke:rgb(0%,0%,0%);stroke-opacity:1;stroke-miterlimit:10;" d="M 201.949219 173.410156 L 193.3125 154.226562 "/>
<path style="fill:none;stroke-width:1.2;stroke-linecap:butt;stroke-linejoin:miter;stroke:rgb(100%,0%,0%);stroke-opacity:1;stroke-miterlimit:10;" d="M 189.652344 190.484375 L 195.800781 181.949219 "/>
<path style="fill:none;stroke-width:1.2;stroke-linecap:butt;stroke-linejoin:miter;stroke:rgb(0%,0%,0%);stroke-opacity:1;stroke-miterlimit:10;" d="M 195.800781 181.949219 L 201.949219 173.410156 "/>
<path style="fill:none;stroke-width:1.2;stroke-linecap:butt;stroke-linejoin:miter;stroke:rgb(0%,0%,0%);stroke-opacity:1;stroke-miterlimit:10;" d="M 193.3125 154.226562 L 205.609375 137.152344 "/>
<path style="fill:none;stroke-width:1.2;stroke-linecap:butt;stroke-linejoin:miter;stroke:rgb(0%,0%,0%);stroke-opacity:1;stroke-miterlimit:10;" d="M 198.558594 155.410156 L 208.394531 141.753906 "/>
<path style="fill:none;stroke-width:1.2;stroke-linecap:butt;stroke-linejoin:miter;stroke:rgb(0%,0%,0%);stroke-opacity:1;stroke-miterlimit:10;" d="M 193.3125 154.226562 L 172.378906 152.113281 "/>
<path style="fill:none;stroke-width:1.2;stroke-linecap:butt;stroke-linejoin:miter;stroke:rgb(0%,0%,0%);stroke-opacity:1;stroke-miterlimit:10;" d="M 172.378906 152.113281 L 160.082031 169.1875 "/>
<path style="fill:none;stroke-width:1.2;stroke-linecap:butt;stroke-linejoin:miter;stroke:rgb(0%,0%,0%);stroke-opacity:1;stroke-miterlimit:10;" d="M 163.738281 132.925781 L 172.378906 152.113281 "/>
<path style="fill:none;stroke-width:1.2;stroke-linecap:butt;stroke-linejoin:miter;stroke:rgb(0%,0%,0%);stroke-opacity:1;stroke-miterlimit:10;" d="M 160.082031 169.1875 L 168.71875 188.371094 "/>
<path style="fill:none;stroke-width:1.2;stroke-linecap:butt;stroke-linejoin:miter;stroke:rgb(0%,0%,0%);stroke-opacity:1;stroke-miterlimit:10;" d="M 160.082031 169.1875 L 149.613281 168.128906 "/>
<path style="fill:none;stroke-width:1.2;stroke-linecap:butt;stroke-linejoin:miter;stroke:rgb(100%,0%,0%);stroke-opacity:1;stroke-miterlimit:10;" d="M 149.613281 168.128906 L 139.148438 167.074219 "/>
<path style="fill:none;stroke-width:1.2;stroke-linecap:butt;stroke-linejoin:miter;stroke:rgb(0%,0%,0%);stroke-opacity:1;stroke-miterlimit:10;" d="M 168.71875 188.371094 L 179.183594 189.425781 "/>
<path style="fill:none;stroke-width:1.2;stroke-linecap:butt;stroke-linejoin:miter;stroke:rgb(100%,0%,0%);stroke-opacity:1;stroke-miterlimit:10;" d="M 179.183594 189.425781 L 189.652344 190.484375 "/>
<path style=" stroke:none;fill-rule:nonzero;fill:rgb(100%,100%,100%);fill-opacity:1;" d="M 185.652344 184.984375 L 193.652344 184.984375 L 193.652344 195.984375 L 185.652344 195.984375 Z M 185.652344 184.984375 "/>
<g style="fill:rgb(100%,0%,0%);fill-opacity:1;">
  <use xlink:href="#glyph0-1" x="185.652344" y="193.647461"/>
</g>
<path style="fill:none;stroke-width:1.2;stroke-linecap:butt;stroke-linejoin:miter;stroke:rgb(100%,0%,0%);stroke-opacity:1;stroke-miterlimit:10;" d="M 139.148438 167.074219 L 134.828125 157.480469 "/>
<path style="fill:none;stroke-width:1.2;stroke-linecap:butt;stroke-linejoin:miter;stroke:rgb(0%,0%,0%);stroke-opacity:1;stroke-miterlimit:10;" d="M 134.828125 157.480469 L 130.511719 147.886719 "/>
<path style=" stroke:none;fill-rule:nonzero;fill:rgb(100%,100%,100%);fill-opacity:1;" d="M 135.148438 161.574219 L 143.148438 161.574219 L 143.148438 172.574219 L 135.148438 172.574219 Z M 135.148438 161.574219 "/>
<g style="fill:rgb(100%,0%,0%);fill-opacity:1;">
  <use xlink:href="#glyph0-1" x="135.148438" y="170.237305"/>
</g>
<path style="fill:none;stroke-width:1.2;stroke-linecap:butt;stroke-linejoin:miter;stroke:rgb(0%,0%,0%);stroke-opacity:1;stroke-miterlimit:10;" d="M 130.511719 147.886719 L 142.804688 130.8125 "/>
<path style="fill:none;stroke-width:1.2;stroke-linecap:butt;stroke-linejoin:miter;stroke:rgb(0%,0%,0%);stroke-opacity:1;stroke-miterlimit:10;" d="M 127.722656 143.285156 L 137.558594 129.628906 "/>
<path style="fill:none;stroke-width:1.2;stroke-linecap:butt;stroke-linejoin:miter;stroke:rgb(0%,0%,0%);stroke-opacity:1;stroke-miterlimit:10;" d="M 109.574219 145.773438 L 130.511719 147.886719 "/>
<path style="fill:none;stroke-width:1.2;stroke-linecap:butt;stroke-linejoin:miter;stroke:rgb(0%,0%,0%);stroke-opacity:1;stroke-miterlimit:10;" d="M 142.804688 130.8125 L 163.738281 132.925781 "/>
<path style="fill:none;stroke-width:1.2;stroke-linecap:butt;stroke-linejoin:miter;stroke:rgb(0%,0%,0%);stroke-opacity:1;stroke-miterlimit:10;" d="M 142.804688 130.8125 L 134.167969 111.628906 "/>
<path style="fill:none;stroke-width:1.2;stroke-linecap:butt;stroke-linejoin:miter;stroke:rgb(0%,0%,0%);stroke-opacity:1;stroke-miterlimit:10;" d="M 165.75 134.375 L 171.898438 125.835938 "/>
<path style="fill:none;stroke-width:1.2;stroke-linecap:butt;stroke-linejoin:miter;stroke:rgb(100%,0%,0%);stroke-opacity:1;stroke-miterlimit:10;" d="M 171.898438 125.835938 L 178.046875 117.300781 "/>
<path style="fill:none;stroke-width:1.2;stroke-linecap:butt;stroke-linejoin:miter;stroke:rgb(0%,0%,0%);stroke-opacity:1;stroke-miterlimit:10;" d="M 161.730469 131.480469 L 167.878906 122.945312 "/>
<path style="fill:none;stroke-width:1.2;stroke-linecap:butt;stroke-linejoin:miter;stroke:rgb(100%,0%,0%);stroke-opacity:1;stroke-miterlimit:10;" d="M 167.878906 122.945312 L 174.027344 114.40625 "/>
<path style=" stroke:none;fill-rule:nonzero;fill:rgb(100%,100%,100%);fill-opacity:1;" d="M 172.035156 110.355469 L 180.035156 110.355469 L 180.035156 121.355469 L 172.035156 121.355469 Z M 172.035156 110.355469 "/>
<g style="fill:rgb(100%,0%,0%);fill-opacity:1;">
  <use xlink:href="#glyph0-1" x="172.035156" y="119.018555"/>
</g>
<path style="fill:none;stroke-width:1.2;stroke-linecap:butt;stroke-linejoin:miter;stroke:rgb(0%,0%,0%);stroke-opacity:1;stroke-miterlimit:10;" d="M 134.167969 111.628906 L 113.234375 109.515625 "/>
<path style="fill:none;stroke-width:1.2;stroke-linecap:butt;stroke-linejoin:miter;stroke:rgb(0%,0%,0%);stroke-opacity:1;stroke-miterlimit:10;" d="M 131.578125 116.34375 L 114.832031 114.652344 "/>
<path style="fill:none;stroke-width:1.2;stroke-linecap:butt;stroke-linejoin:miter;stroke:rgb(0%,0%,0%);stroke-opacity:1;stroke-miterlimit:10;" d="M 113.234375 109.515625 L 100.9375 126.589844 "/>
<path style="fill:none;stroke-width:1.2;stroke-linecap:butt;stroke-linejoin:miter;stroke:rgb(0%,0%,0%);stroke-opacity:1;stroke-miterlimit:10;" d="M 100.9375 126.589844 L 109.574219 145.773438 "/>
<path style="fill:none;stroke-width:1.2;stroke-linecap:butt;stroke-linejoin:miter;stroke:rgb(0%,0%,0%);stroke-opacity:1;stroke-miterlimit:10;" d="M 97.289062 130.539062 L 104.199219 145.886719 "/>
<path style="fill:none;stroke-width:1.2;stroke-linecap:butt;stroke-linejoin:miter;stroke:rgb(100%,0%,0%);stroke-opacity:1;stroke-miterlimit:10;" d="M 80.023438 128.875 L 90.480469 127.730469 "/>
<path style="fill:none;stroke-width:1.2;stroke-linecap:butt;stroke-linejoin:miter;stroke:rgb(0%,0%,0%);stroke-opacity:1;stroke-miterlimit:10;" d="M 90.480469 127.730469 L 100.9375 126.589844 "/>
<path style="fill:none;stroke-width:1.2;stroke-linecap:butt;stroke-linejoin:miter;stroke:rgb(0%,0%,0%);stroke-opacity:1;stroke-miterlimit:10;" d="M 109.574219 145.773438 L 94 159.917969 "/>
<path style="fill:none;stroke-width:1.2;stroke-linecap:butt;stroke-linejoin:miter;stroke:rgb(0%,0%,0%);stroke-opacity:1;stroke-miterlimit:10;" d="M 94 159.917969 L 75.734375 149.472656 "/>
<path style="fill:none;stroke-width:1.2;stroke-linecap:butt;stroke-linejoin:miter;stroke:rgb(0%,0%,0%);stroke-opacity:1;stroke-miterlimit:10;" d="M 75.734375 149.472656 L 77.878906 139.175781 "/>
<path style="fill:none;stroke-width:1.2;stroke-linecap:butt;stroke-linejoin:miter;stroke:rgb(100%,0%,0%);stroke-opacity:1;stroke-miterlimit:10;" d="M 77.878906 139.175781 L 80.023438 128.875 "/>
<path style="fill:none;stroke-width:1.2;stroke-linecap:butt;stroke-linejoin:miter;stroke:rgb(0%,0%,0%);stroke-opacity:1;stroke-miterlimit:10;" d="M 75.734375 149.472656 L 56.546875 158.109375 "/>
<path style=" stroke:none;fill-rule:nonzero;fill:rgb(100%,100%,100%);fill-opacity:1;" d="M 76.023438 123.375 L 84.023438 123.375 L 84.023438 134.375 L 76.023438 134.375 Z M 76.023438 123.375 "/>
<g style="fill:rgb(100%,0%,0%);fill-opacity:1;">
  <use xlink:href="#glyph0-1" x="76.023438" y="132.038086"/>
</g>
<path style="fill:none;stroke-width:1.2;stroke-linecap:butt;stroke-linejoin:miter;stroke:rgb(0%,0%,0%);stroke-opacity:1;stroke-miterlimit:10;" d="M 57.996094 156.101562 L 40.921875 143.804688 "/>
<path style="fill:none;stroke-width:1.2;stroke-linecap:butt;stroke-linejoin:miter;stroke:rgb(0%,0%,0%);stroke-opacity:1;stroke-miterlimit:10;" d="M 55.101562 160.117188 L 38.027344 147.824219 "/>
<path style="fill:none;stroke-width:1.2;stroke-linecap:butt;stroke-linejoin:miter;stroke:rgb(0%,0%,0%);stroke-opacity:1;stroke-miterlimit:10;" d="M 56.546875 158.109375 L 54.4375 179.042969 "/>
<path style="fill:none;stroke-width:1.2;stroke-linecap:butt;stroke-linejoin:miter;stroke:rgb(0%,0%,0%);stroke-opacity:1;stroke-miterlimit:10;" d="M 54.4375 179.042969 L 44.84375 183.363281 "/>
<path style="fill:none;stroke-width:1.2;stroke-linecap:butt;stroke-linejoin:miter;stroke:rgb(100%,0%,0%);stroke-opacity:1;stroke-miterlimit:10;" d="M 44.84375 183.363281 L 35.25 187.679688 "/>
<path style=" stroke:none;fill-rule:nonzero;fill:rgb(100%,100%,100%);fill-opacity:1;" d="M 20.25 182.179688 L 35.25 182.179688 L 35.25 193.179688 L 20.25 193.179688 Z M 20.25 182.179688 "/>
<g style="fill:rgb(100%,0%,0%);fill-opacity:1;">
  <use xlink:href="#glyph0-2" x="20.25" y="190.842773"/>
  <use xlink:href="#glyph0-1" x="27.264648" y="190.842773"/>
</g>
<path style="fill:none;stroke-width:1.2;stroke-linecap:butt;stroke-linejoin:miter;stroke:rgb(100%,0%,0%);stroke-opacity:1;stroke-miterlimit:10;" d="M 256.113281 160.5625 L 260.429688 170.15625 "/>
<path style="fill:none;stroke-width:1.2;stroke-linecap:butt;stroke-linejoin:miter;stroke:rgb(0%,0%,0%);stroke-opacity:1;stroke-miterlimit:10;" d="M 260.429688 170.15625 L 264.75 179.75 "/>
<path style=" stroke:none;fill-rule:nonzero;fill:rgb(100%,100%,100%);fill-opacity:1;" d="M 252.113281 155.0625 L 260.113281 155.0625 L 260.113281 166.0625 L 252.113281 166.0625 Z M 252.113281 155.0625 "/>
<g style="fill:rgb(100%,0%,0%);fill-opacity:1;">
  <use xlink:href="#glyph0-1" x="252.113281" y="163.725586"/>
</g>
</g>
</svg>

<svg xmlns="http://www.w3.org/2000/svg" xmlns:xlink="http://www.w3.org/1999/xlink" width="300pt" height="300pt" viewBox="0 0 300 300"><defs><symbol overflow="visible"><path d="M.453 1.594v-7.938h4.5v7.938zm.5-.5h3.5v-6.938h-3.5zm0 0"/></symbol><symbol overflow="visible" id="a"><path d="M3.547-5.953c-.65 0-1.164.242-1.547.72-.375.48-.563 1.13-.563 1.952 0 .835.188 1.49.563 1.967.383.48.898.72 1.547.72.644 0 1.156-.24 1.53-.72.376-.476.564-1.132.564-1.968 0-.822-.187-1.474-.562-1.954-.375-.477-.887-.72-1.53-.72zm0-.734c.914 0 1.648.312 2.203.937.55.617.828 1.438.828 2.47 0 1.042-.277 1.87-.828 2.483-.555.617-1.29.922-2.203.922-.93 0-1.668-.305-2.22-.922C.774-1.41.5-2.237.5-3.28c0-1.033.273-1.853.828-2.47.55-.625 1.29-.938 2.22-.938zm0 0"/></symbol><symbol overflow="visible" id="b"><path d="M.89-6.563h.876v2.688H5v-2.688h.89V0H5v-3.125H1.766V0H.89zm0 0"/></symbol></defs><g><path fill="#fff" d="M0 0h300v300H0z"/><path d="M259.773 124.305l-10.468-1.055" stroke-width="1.2" stroke="#000" stroke-miterlimit="10" fill="none"/><path d="M249.305 123.25l-10.465-1.06M238.84 122.19l-6.15 8.54" stroke-width="1.2" stroke="#f00" stroke-miterlimit="10" fill="none"/><path d="M232.69 130.73l-6.147 8.536" stroke-width="1.2" stroke="#000" stroke-miterlimit="10" fill="none"/><path d="M234.84 116.69h8v11h-8zm0 0" fill="#fff"/><use xlink:href="#a" x="234.84" y="125.354" fill="#f00"/><path d="M226.543 139.266l8.637 19.183M222.89 143.215l6.91 15.35M205.61 137.152l20.933 2.114M235.18 158.45l-12.297 17.073M235.18 158.45l10.465 1.058" stroke-width="1.2" stroke="#000" stroke-miterlimit="10" fill="none"/><path d="M245.645 159.508l10.468 1.054" stroke-width="1.2" stroke="#f00" stroke-miterlimit="10" fill="none"/><path d="M222.883 175.523l-20.934-2.113M221.285 170.387l-16.746-1.692M201.95 173.41l-8.637-19.183" stroke-width="1.2" stroke="#000" stroke-miterlimit="10" fill="none"/><path d="M189.652 190.484l6.15-8.535" stroke-width="1.2" stroke="#f00" stroke-miterlimit="10" fill="none"/><path d="M195.8 181.95l6.15-8.54M193.313 154.227l12.296-17.075M198.56 155.41l9.835-13.656M193.313 154.227l-20.934-2.114M172.38 152.113l-12.298 17.075M163.738 132.926l8.64 19.187M160.082 169.188l8.637 19.183M160.082 169.188l-10.47-1.06" stroke-width="1.2" stroke="#000" stroke-miterlimit="10" fill="none"/><path d="M149.613 168.13l-10.465-1.056" stroke-width="1.2" stroke="#f00" stroke-miterlimit="10" fill="none"/><path d="M168.72 188.37l10.464 1.056" stroke-width="1.2" stroke="#000" stroke-miterlimit="10" fill="none"/><path d="M179.184 189.426l10.468 1.058" stroke-width="1.2" stroke="#f00" stroke-miterlimit="10" fill="none"/><path d="M185.652 184.984h8v11h-8zm0 0" fill="#fff"/><use xlink:href="#a" x="185.652" y="193.647" fill="#f00"/><path d="M139.148 167.074l-4.32-9.594" stroke-width="1.2" stroke="#f00" stroke-miterlimit="10" fill="none"/><path d="M134.828 157.48l-4.316-9.593" stroke-width="1.2" stroke="#000" stroke-miterlimit="10" fill="none"/><path d="M135.148 161.574h8v11h-8zm0 0" fill="#fff"/><use xlink:href="#a" x="135.148" y="170.237" fill="#f00"/><path d="M130.512 147.887l12.293-17.075M127.723 143.285l9.836-13.656M109.574 145.773l20.938 2.114M142.805 130.813l20.933 2.113M142.805 130.813l-8.637-19.184M165.75 134.375l6.148-8.54" stroke-width="1.2" stroke="#000" stroke-miterlimit="10" fill="none"/><path d="M171.898 125.836l6.15-8.535" stroke-width="1.2" stroke="#f00" stroke-miterlimit="10" fill="none"/><path d="M161.73 131.48l6.15-8.535" stroke-width="1.2" stroke="#000" stroke-miterlimit="10" fill="none"/><path d="M167.88 122.945l6.147-8.54" stroke-width="1.2" stroke="#f00" stroke-miterlimit="10" fill="none"/><path d="M172.035 110.355h8v11h-8zm0 0" fill="#fff"/><use xlink:href="#a" x="172.035" y="119.019" fill="#f00"/><path d="M134.168 111.63l-20.934-2.114M131.578 116.344l-16.746-1.692M113.234 109.516l-12.296 17.074M100.938 126.59l8.636 19.183M97.29 130.54l6.91 15.347" stroke-width="1.2" stroke="#000" stroke-miterlimit="10" fill="none"/><path d="M80.023 128.875l10.457-1.145" stroke-width="1.2" stroke="#f00" stroke-miterlimit="10" fill="none"/><path d="M90.48 127.73l10.457-1.14M109.574 145.773L94 159.918M94 159.918l-18.266-10.445M75.734 149.473l2.145-10.297" stroke-width="1.2" stroke="#000" stroke-miterlimit="10" fill="none"/><path d="M77.88 139.176l2.143-10.3" stroke-width="1.2" stroke="#f00" stroke-miterlimit="10" fill="none"/><path d="M75.734 149.473l-19.187 8.636" stroke-width="1.2" stroke="#000" stroke-miterlimit="10" fill="none"/><path d="M76.023 123.375h8v11h-8zm0 0" fill="#fff"/><use xlink:href="#a" x="76.023" y="132.038" fill="#f00"/><path d="M57.996 156.102l-17.074-12.297M55.102 160.117l-17.075-12.293M56.547 158.11l-2.11 20.933M54.438 179.043l-9.594 4.32" stroke-width="1.2" stroke="#000" stroke-miterlimit="10" fill="none"/><path d="M44.844 183.363l-9.594 4.317" stroke-width="1.2" stroke="#f00" stroke-miterlimit="10" fill="none"/><path d="M20.25 182.18h15v11h-15zm0 0" fill="#fff"/><g fill="#f00"><use xlink:href="#b" x="20.25" y="190.843"/><use xlink:href="#a" x="27.265" y="190.843"/></g><path d="M256.113 160.563l4.317 9.593" stroke-width="1.2" stroke="#f00" stroke-miterlimit="10" fill="none"/><path d="M260.43 170.156l4.32 9.594" stroke-width="1.2" stroke="#000" stroke-miterlimit="10" fill="none"/><path d="M252.113 155.063h8v11h-8zm0 0" fill="#fff"/><use xlink:href="#a" x="252.113" y="163.726" fill="#f00"/></g></svg>
